dist/svgs/crypto-icons/icons/gld.svg

<?xml version="1.0" encoding="UTF-8" standalone="yes"?>
<svg xmlns="http://www.w3.org/2000/svg" xmlns:xlink="http://www.w3.org/1999/xlink" width="512px" height="512px" viewBox="0 0 384 384" version="1.1">
  <g id="surface1">
    <path style=" stroke:none;fill-rule:nonzero;fill:rgb(0%,0%,0%);fill-opacity:1;" d="M 372.835938 182.695312 L 251.546875 182.695312 C 245.625 182.695312 240.71875 187.601562 240.71875 193.523438 L 240.71875 231.414062 C 240.71875 237.335938 245.625 242.242188 251.546875 242.242188 L 319.210938 242.242188 C 301.277344 284.195312 261.019531 312.953125 211.117188 311.089844 C 170.347656 309.566406 134.484375 287.070312 114.183594 254.082031 L 138.375 254.082031 C 144.296875 254.082031 149.203125 249.175781 149.203125 243.257812 L 149.203125 234.121094 C 149.203125 228.199219 144.296875 223.296875 138.375 223.296875 L 100.820312 223.296875 C 98.453125 214.667969 96.929688 205.703125 96.59375 196.398438 C 96.253906 186.585938 97.097656 177.28125 98.960938 168.148438 L 138.542969 168.148438 C 144.464844 168.148438 149.371094 163.242188 149.371094 157.320312 L 149.371094 148.1875 C 149.371094 142.265625 144.464844 137.359375 138.542969 137.359375 L 109.617188 137.359375 C 129.410156 98.792969 169.5 72.402344 215.851562 72.402344 C 253.746094 72.402344 287.578125 90.164062 309.398438 117.738281 C 313.121094 122.472656 320.394531 122.980469 324.453125 118.414062 L 353.71875 87.117188 C 356.257812 84.414062 356.425781 80.183594 354.058594 77.308594 C 320.5625 36.878906 269.816406 11.332031 212.976562 12.179688 C 134.652344 13.53125 67.835938 65.972656 44.828125 137.53125 L 10.828125 137.53125 C 4.90625 137.53125 0 142.433594 0 148.355469 L 0 157.320312 C 0 163.242188 4.90625 168.148438 10.828125 168.148438 L 38.0625 168.148438 C 37.214844 174.578125 36.707031 181.003906 36.539062 187.433594 C 36.199219 199.613281 37.214844 211.621094 39.246094 223.296875 L 10.828125 223.296875 C 4.90625 223.296875 0 228.199219 0 234.121094 L 0 243.257812 C 0 249.175781 4.90625 254.082031 10.828125 254.082031 L 47.535156 254.082031 C 72.910156 322.59375 138.714844 371.3125 215.851562 371.3125 C 348.8125 371.3125 383.660156 257.296875 383.660156 231.414062 L 383.660156 193.523438 C 383.660156 187.601562 378.757812 182.695312 372.835938 182.695312 Z M 372.835938 182.695312 "/>
  </g>
</svg>

<svg xmlns="http://www.w3.org/2000/svg" viewBox="0 0 384 384"><path d="M372.836 182.695h-121.29c-5.921 0-10.827 4.907-10.827 10.828v37.891c0 5.922 4.906 10.828 10.828 10.828h67.664c-17.934 41.953-58.191 70.711-108.094 68.848-40.77-1.524-76.633-24.02-96.933-57.008h24.191c5.922 0 10.828-4.906 10.828-10.824v-9.137c0-5.922-4.906-10.824-10.828-10.824H100.82c-2.367-8.629-3.89-17.594-4.226-26.899-.34-9.812.504-19.117 2.367-28.25h39.582c5.922 0 10.828-4.906 10.828-10.828v-9.132c0-5.922-4.906-10.829-10.828-10.829h-28.926C129.41 98.793 169.5 72.402 215.852 72.402c37.894 0 71.726 17.762 93.546 45.336 3.723 4.735 10.997 5.242 15.055.676l29.266-31.297c2.539-2.703 2.707-6.933.34-9.808-33.497-40.43-84.243-65.977-141.082-65.13-78.325 1.352-145.141 53.794-168.149 125.352h-34C4.906 137.531 0 142.434 0 148.355v8.965c0 5.922 4.906 10.828 10.828 10.828h27.235a184.233 184.233 0 00-1.524 19.286c-.34 12.18.676 24.187 2.707 35.863H10.828C4.906 223.297 0 228.199 0 234.12v9.137c0 5.918 4.906 10.824 10.828 10.824h36.707c25.375 68.512 91.18 117.23 168.317 117.23 132.96 0 167.808-114.015 167.808-139.898v-37.89c0-5.922-4.902-10.829-10.824-10.829zm0 0"/></svg>
